icons/imagewebp.svg

<svg width="16" height="16" viewBox="0 0 16 16" fill="none" xmlns="http://www.w3.org/2000/svg">
<path d="M4 13L7 9L9 12L10 11L12 13H4ZM6.25 3.5C6.59612 3.5 6.93446 3.60264 7.22225 3.79493C7.51003 3.98722 7.73434 4.26054 7.86679 4.58031C7.99924 4.90008 8.0339 5.25194 7.96637 5.59141C7.89885 5.93088 7.73218 6.2427 7.48744 6.48744C7.24269 6.73218 6.93088 6.89885 6.59141 6.96638C6.25194 7.0339 5.90007 6.99924 5.5803 6.86679C5.26053 6.73434 4.98722 6.51004 4.79493 6.22225C4.60264 5.93446 4.5 5.59612 4.5 5.25C4.5 4.78587 4.68437 4.34075 5.01256 4.01257C5.34075 3.68438 5.78587 3.5 6.25 3.5ZM9.11 2H4C3.73478 2 3.48043 2.10536 3.29289 2.2929C3.10536 2.48043 3 2.73479 3 3V13C3 13.2652 3.10536 13.5196 3.29289 13.7071C3.48043 13.8946 3.73478 14 4 14H12C12.2652 14 12.5196 13.8946 12.7071 13.7071C12.8946 13.5196 13 13.2652 13 13V5.91C12.9989 5.64766 12.8947 5.39626 12.71 5.21C12 4.53 10.49 3 9.8 2.29C9.71098 2.19699 9.6038 2.12325 9.48511 2.07337C9.36642 2.02348 9.23874 1.99851 9.11 2Z" fill="#D16AE2"/>
</svg>

<svg xmlns="http://www.w3.org/2000/svg" width="16" height="16" fill="none"><path fill="#D16AE2" d="m4 13 3-4 2 3 1-1 2 2H4Zm2.25-9.5a1.75 1.75 0 1 1 0 3.5 1.75 1.75 0 0 1 0-3.5ZM9.11 2H4a1 1 0 0 0-1 1v10a1 1 0 0 0 1 1h8a1 1 0 0 0 1-1V5.91a1 1 0 0 0-.29-.7C12 4.53 10.49 3 9.8 2.29A.94.94 0 0 0 9.11 2Z"/></svg>
